X: 15739
T: Golpe Do Carballiño
R: polka
M: 2/4
K: Dmajor
A/G/|:"D" F>E D/E/F/G/|.A.A .AB/A/|"A"GF/G/ AB|"D"A/G/F FA/G/|
"D" F>E D/E/F/G/|.A.A .AB/A/|"A"GF/G/ AB/A/|1 "D"D2 z A/G/:|2 "D"D4||
|:"A"E2 F2|GAz G|"D" F>E DE|F/G/F/E/ DD|
"A" E2F2|GAz G|"D" F>E DD/E/|1 DD3:|2 D4||

